!!!OTL: Dafeng gualai zhuye luo
!!!ARE: Asia, China,ˇYunnan
!! II, 75
!!!SCT: C1491
!!!YEM: Copyright 1995, estate of Helmut Schaffrath.
**kern
*ICvox
*Ivox
!! Mixed meters:  2/4; 3/4
*M3/4
*k[b-e-]
*B-:
{8gg
16ccc
16bb-
8gg
8cc
=1
4gg
16ccc
8ddd
16ccc
8bb-
8gg
=2
4gg
16ccc
8ddd
16ccc
8bb-
8gg}
=3
{8cc
16cc
16cc
8gg
16bb-
16gg
8ff
8ee-
=4
8ff
[8gg
16gg]
16ff
16gg
16bb-
8ff
16gg
16bb-
=5
8ff
[8gg
16gg]
16ff
16ff
16ee-
4cc}
=6
*M2/4
{8ee-
8cc
16gg
16bb-
8gg
=7
*M3/4
[2ccc
8ccc]
8fff
=8
8ddd
[8ccc
16ccc]
16bb-
16gg
16bb-
8ff
8ff
=9
8ddd
[8ccc
16ccc]
16bb-
16gg
16bb-
8.ff}
{16gg
=10
*M2/4
8ff
8ff
8ee-
8ff
=11
4.gg
8ccc
=12
*M3/4
8ff
8gg
16gg
16ff
16ff
16ee-
8cc
16ee-
16ff
=13
8ff
8gg
16gg
16ff
16ff
16ee-
4cc}
=14
*M2/4
{8r
8bb-
8aa
8bb-
=15
*M3/4
8ccc
16bb-
16ccc
8ff
16gg
16bb-
4ccc}
=16
{8.ccc
16bb-
8ff
16bb-
16ccc
8.gg
16bb-
=17
8.ee-
16ff
8gg
8gg
8ff}
{16ee-
16gg
=18
8ee-
8gg
8bb-
16ee-
16ff
8gg
16bb-
16ee-
=19
*M2/4
8ee-
8ff
8r
[8b-
=20
8b-]
8dd
4cc}
=21
{8ddd
[4.ccc
=22
4.ccc]
8fff
=23
*M3/4
8fff
16ccc
16bb-
8ee-
8ff
4gg}
=24
*M2/4
{8bb-
8gg
16gg
16bb-
16gg
16bb-
=25
*M3/4
[2ccc
8ccc]
8ddd
=26
*M2/4
8ff
8gg
16gg
16ff
16ff
16ee-
=27
2cc}
==
!!!AGN: Shange. NannÅ qing
!!!AMT: irregular
!!!AIN: vox
!!!EED: Helmut Schaffrath
!!!EEV: 1.0
*-
!!!ONB: Tied note syntax fixed by Craig Sapp, 2004/05/03/
